tools/download-figma-icons/icons/outlined-medium/wallbox-solar.svg

<svg width="24" height="24" viewBox="0 0 24 24" fill="none" xmlns="http://www.w3.org/2000/svg">
<path fill-rule="evenodd" clip-rule="evenodd" d="M21.7462 0C22.1286 0 22.4435 0.285 22.4885 0.6675L23.9958 14.1675C24.0182 14.3775 23.9508 14.595 23.8083 14.7525C23.6658 14.91 23.4558 15 23.2459 15H14.2475V21.975C14.2475 23.0925 13.3401 24 12.2228 24H2.02464C0.907339 24 0 23.0925 0 21.975V11.775C0 10.6575 0.907339 9.75 2.02464 9.75H10.1082L11.2555 0.66C11.3005 0.285 11.6229 0 11.9979 0H21.7462ZM19.4366 9H21.8961L21.5662 6H19.3166L19.4366 9ZM19.2641 4.5H21.3937L21.0638 1.5H19.1441L19.2641 4.5ZM15.9347 4.5H17.7644H17.7719L17.6519 1.5H16.0847L15.9347 4.5ZM14.4274 4.5L14.5774 1.5H12.6578L12.2753 4.5H14.4274ZM12.2153 22.5C12.5078 22.5 12.7402 22.2675 12.7402 21.975H12.7477V11.775C12.7477 11.4825 12.5153 11.25 12.2228 11.25H2.02464C1.73219 11.25 1.49973 11.4825 1.49973 11.775V21.975C1.49973 22.2675 1.73219 22.5 2.02464 22.5H12.2153ZM11.6079 9.75H12.2153H12.2228C13.3401 9.75 14.2475 10.6575 14.2475 11.775V13.5H18.1168L17.9968 10.5H17.2394C16.827 10.5 16.4896 10.1625 16.4896 9.75C16.4896 9.3375 16.827 9 17.2394 9H17.9368L17.8168 6H15.8522L15.7397 8.2875C15.7172 8.685 15.3873 9 14.9898 9H14.9524C14.5399 8.9775 14.2175 8.625 14.24 8.2125L14.3525 6H12.0804L11.6079 9.75ZM19.489 10.5L19.609 13.5H22.391L22.0611 10.5H19.489ZM8.95341 14.565C8.95341 14.565 9.32835 16.2 10.7756 16.6575C11.4805 16.92 11.9979 17.52 11.9979 18.3375C11.9979 19.3725 11.1805 20.22 10.1682 20.22C9.53081 20.22 8.96091 19.875 8.63847 19.365C8.56562 19.2409 8.49969 19.1252 8.43823 19.0173C7.96832 18.1926 7.75994 17.8269 6.71881 17.7075C5.98037 17.6224 5.66043 17.355 5.34131 17.0884C4.95722 16.7674 4.57433 16.4475 3.46439 16.4475C2.2496 16.4475 2.2496 15.6075 2.2496 15.6075C2.2496 14.775 2.65453 14.355 3.46439 14.355C3.50194 14.355 3.54241 14.3557 3.58551 14.3564C4.01567 14.3637 4.70654 14.3753 5.35405 13.755C5.75898 13.35 6.31388 13.095 6.92128 13.095C7.8811 13.095 8.63847 13.68 8.95341 14.565ZM5.81147 15.375C5.81147 15.9975 6.31388 16.5 6.93627 16.5C7.55866 16.5 8.06107 15.9975 8.06107 15.375C8.06107 14.7525 7.55866 14.25 6.93627 14.25C6.31388 14.25 5.81147 14.7525 5.81147 15.375ZM9.56081 18.465C9.56081 18.8325 9.85326 19.125 10.2207 19.125C10.5806 19.125 10.8731 18.825 10.8731 18.465C10.8731 18.105 10.5881 17.8125 10.2207 17.8125C9.85326 17.8125 9.56081 18.0975 9.56081 18.465Z" fill="black"/>
</svg>

<svg xmlns="http://www.w3.org/2000/svg" width="24" height="24" fill="none" viewBox="0 0 24 24"><path fill="currentColor" fill-rule="evenodd" d="M21.746 0c.383 0 .698.285.742.668l1.508 13.5a.76.76 0 0 1-.188.585.77.77 0 0 1-.562.247h-8.998v6.975A2.026 2.026 0 0 1 12.223 24H2.025A2.026 2.026 0 0 1 0 21.975v-10.2C0 10.658.907 9.75 2.025 9.75h8.083L11.255.66a.75.75 0 0 1 .743-.66zm-2.31 9h2.46l-.33-3h-2.25zm-.172-4.5h2.13l-.33-3h-1.92zm-3.33 0h1.838l-.12-3h-1.567zm-1.507 0 .15-3h-1.92l-.382 3zm-2.212 18a.52.52 0 0 0 .525-.525h.008v-10.2a.52.52 0 0 0-.525-.525H2.025a.52.52 0 0 0-.525.525v10.2c0 .292.232.525.525.525zm-.607-12.75h.615c1.117 0 2.024.908 2.024 2.025V13.5h3.87l-.12-3h-.758a.75.75 0 0 1-.75-.75c0-.412.338-.75.75-.75h.698l-.12-3h-1.965l-.112 2.287a.755.755 0 0 1-.75.713h-.038a.753.753 0 0 1-.712-.787L14.352 6H12.08zm7.881.75.12 3h2.782l-.33-3zM8.953 14.565s.375 1.635 1.823 2.092c.704.263 1.222.863 1.222 1.68 0 1.035-.817 1.883-1.83 1.883a1.82 1.82 0 0 1-1.53-.855l-.2-.348c-.47-.824-.678-1.19-1.72-1.31-.738-.085-1.058-.352-1.377-.619-.384-.32-.767-.64-1.877-.64-1.214 0-1.214-.84-1.214-.84q0-1.251 1.214-1.253l.122.001c.43.008 1.12.02 1.768-.601.405-.405.96-.66 1.567-.66.96 0 1.717.585 2.032 1.47m-3.142.81c0 .623.503 1.125 1.125 1.125.623 0 1.125-.502 1.125-1.125S7.56 14.25 6.936 14.25c-.622 0-1.125.502-1.125 1.125m3.75 3.09a.656.656 0 1 0 1.312 0 .65.65 0 0 0-.652-.652.65.65 0 0 0-.66.652" clip-rule="evenodd"/></svg>
